X: 18747
T: Ievan Polkka
R: polka
M: 2/4
K: Bminor
F|:"Bm"B>B Bc|dB B/c/d|"A"cA Ac|"Bm"d/c/B/A/ BF|
"Bm"B>B Bc|dB B/c/d|"F#7"f>e dc|1 "Bm"dB B2:|2 "Bm"dB BB/d/||
|:"Bm"ff/f/ ed|"A"cA A/B/c|ee/e/ dc|"Bm"dB B2|
"Bm"ff/f/ ed|"A"cA A/B/c|e>e dc|1 "Bm"dB BB/d/:|2 "Bm"dB/B/ B2||

